SVG/cloud-upload.svg

<?xml version="1.0" encoding="utf-8"?>
<!-- Generated by IcoMoon.io -->
<!DOCTYPE svg PUBLIC "-//W3C//DTD SVG 1.1//EN" "http://www.w3.org/Graphics/SVG/1.1/DTD/svg11.dtd">
<svg version="1.1" xmlns="http://www.w3.org/2000/svg" xmlns:xlink="http://www.w3.org/1999/xlink" width="15" height="14" viewBox="0 0 15 14">
<path fill="#444444" d="M10 6.75q0-0.109-0.070-0.18l-2.75-2.75q-0.070-0.070-0.18-0.070t-0.18 0.070l-2.742 2.742q-0.078 0.094-0.078 0.187 0 0.109 0.070 0.18t0.18 0.070h1.75v2.75q0 0.102 0.074 0.176t0.176 0.074h1.5q0.102 0 0.176-0.074t0.074-0.176v-2.75h1.75q0.102 0 0.176-0.074t0.074-0.176zM15 9q0 1.242-0.879 2.121t-2.121 0.879h-8.5q-1.445 0-2.473-1.027t-1.027-2.473q0-1.016 0.547-1.875t1.469-1.289q-0.016-0.234-0.016-0.336 0-1.656 1.172-2.828t2.828-1.172q1.219 0 2.23 0.68t1.473 1.805q0.555-0.484 1.297-0.484 0.828 0 1.414 0.586t0.586 1.414q0 0.594-0.32 1.078 1.016 0.242 1.668 1.059t0.652 1.863z"></path>
</svg>

<svg xmlns="http://www.w3.org/2000/svg" viewBox="0 0 15 14"><path d="M10 6.75q0-.11-.07-.18L7.18 3.82q-.07-.07-.18-.07t-.18.07L4.078 6.562Q4 6.656 4 6.75q0 .108.07.18t.18.07H6v2.75q0 .1.074.175T6.25 10h1.5q.102 0 .176-.075T8 9.75V7h1.75q.102 0 .176-.075T10 6.75zM15 9q0 1.242-.88 2.12T12 12H3.5q-1.445 0-2.473-1.027T0 8.5q0-1.016.547-1.875t1.47-1.29Q2 5.103 2 5q0-1.656 1.172-2.828T6 1q1.22 0 2.23.68t1.473 1.805Q10.258 3 11 3q.828 0 1.414.587T13 5q0 .595-.32 1.08 1.016.24 1.668 1.058T15 9z" /></svg>
